Papirus/22x22/panel/mintupdate-installing.svg

<?xml version="1.0" encoding="UTF-8" standalone="no"?>
<svg xmlns:dc="http://purl.org/dc/elements/1.1/" xmlns:cc="http://creativecommons.org/ns#" xmlns:rdf="http://www.w3.org/1999/02/22-rdf-syntax-ns#" xmlns:svg="http://www.w3.org/2000/svg" xmlns="http://www.w3.org/2000/svg" version="1.1" id="svg2" height="22" viewBox="0 0 6.208889 6.208889" width="22">
    <metadata id="metadata18">
        <rdf:RDF>
            <cc:Work rdf:about="">
                <dc:format>
                    image/svg+xml
                </dc:format>
                <dc:type rdf:resource="http://purl.org/dc/dcmitype/StillImage"/>
                <dc:title/>
            </cc:Work>
        </rdf:RDF>
    </metadata>
    <path id="path4148" transform="scale(0.28222222,0.28222222)" d="M 11 3 C 8.8518754 4.9697781 5.234625 6.7048889 4 7 C 4 12.333333 6.6250001 18.111111 11 19 C 15.375 18.111111 18 12.333333 18 7 C 16.765375 6.7048889 13.148125 4.9697781 11 3 z M 10 8 L 12 8 L 12 13 L 14 13 L 11 16 L 8 13 L 10 13 L 10 8 z " style="fill:#ffffff;fill-opacity:1;fill-rule:evenodd;stroke:none;opacity:1"/>
    <g id="g6" transform="matrix(0.28222222,0,0,0.28222222,-10.6045,0.2470856)">
        <g id="g8" transform="matrix(0.42297932,0,0,0.42297932,-11.083711,3.1945516)">
<!--color: #004794-->
        </g>
    </g>
    <g id="g10" style="stroke-dasharray:none;stroke-opacity:1;stroke-miterlimit:4;stroke:#000;stroke-width:1" transform="matrix(0.28222222,0,0,0.28222222,-10.392658,1.2296495)">
        <g id="g12" style="stroke-width:2.364" transform="matrix(0.42297932,0,0,0.42297932,-11.083711,3.1945516)">
<!--color: #004794-->
        </g>
    </g>
</svg>

<?xml version="1.0" encoding="UTF-8" standalone="no"?>
<svg id="svg2" xmlns:rdf="http://www.w3.org/1999/02/22-rdf-syntax-ns#" xmlns="http://www.w3.org/2000/svg" height="22" viewBox="0 0 6.208889 6.208889" width="22" version="1.1" xmlns:cc="http://creativecommons.org/ns#" xmlns:dc="http://purl.org/dc/elements/1.1/">
 <metadata id="metadata18">
  <rdf:RDF>
   <cc:Work rdf:about="">
    <dc:format>image/svg+xml</dc:format>
    <dc:type rdf:resource="http://purl.org/dc/dcmitype/StillImage"/>
    <dc:title/>
   </cc:Work>
  </rdf:RDF>
 </metadata>
 <path id="path4148" d="m11 3c-2.1481 1.9698-5.7654 3.7049-7 4 0 5.333 2.625 11.111 7 12 4.375-0.889 7-6.667 7-12-1.235-0.2951-4.852-2.0302-7-4zm-1 5h2v5h2l-3 3-3-3h2v-5z" fill-rule="evenodd" transform="scale(.28222)" fill="#fff"/>
 <g id="g6" transform="matrix(.28222 0 0 .28222 -10.604 .24709)">
  <g id="g8" transform="matrix(.42298 0 0 .42298 -11.084 3.1946)"><!--color: #004794--></g>
 </g>
 <g id="g10" transform="matrix(.28222 0 0 .28222 -10.393 1.2296)" stroke="#000">
  <g id="g12" stroke-width="2.364" transform="matrix(.42298 0 0 .42298 -11.084 3.1946)"><!--color: #004794--></g>
 </g>
</svg>
